_includes/logo_small.svg

<?xml version="1.0" encoding="UTF-8" standalone="no"?>
<svg class="logo-small" width="175px" height="59px" viewBox="0 0 175 59" version="1.1" xmlns="http://www.w3.org/2000/svg" xmlns:xlink="http://www.w3.org/1999/xlink">
    <title>Claxon Design Co.</title>
    <defs>
        <path d="M111.24,29.68 C111.24,34.0533552 110.586673,37.9866492 109.28,41.48 C107.973327,44.9733508 106.133345,47.9466544 103.76,50.4 C101.386655,52.8533456 98.5466832,54.7333268 95.24,56.04 C91.9333168,57.3466732 88.2666868,58 84.24,58 L63.6,58 L63.6,1.4 L84.24,1.4 C88.2666868,1.4 91.9333168,2.0533268 95.24,3.36 C98.5466832,4.6666732 101.386655,6.5466544 103.76,9 C106.133345,11.4533456 107.973327,14.4266492 109.28,17.92 C110.586673,21.4133508 111.24,25.3333116 111.24,29.68 L111.24,29.68 Z M107,29.68 C107,25.7333136 106.453339,22.2133488 105.36,19.12 C104.266661,16.0266512 102.726677,13.413344 100.74,11.28 C98.7533234,9.146656 96.360014,7.5200056 93.56,6.4 C90.759986,5.2799944 87.6533504,4.72 84.24,4.72 L67.72,4.72 L67.72,54.68 L84.24,54.68 C87.6533504,54.68 90.759986,54.1200056 93.56,53 C96.360014,51.8799944 98.7533234,50.253344 100.74,48.12 C102.726677,45.986656 104.266661,43.3733488 105.36,40.28 C106.453339,37.1866512 107,33.6533532 107,29.68 L107,29.68 Z" id="path-1"></path>
    </defs>
    <g id="Logo" stroke="none" stroke-width="1" fill="none" fill-rule="evenodd">
        <g id="Artboard-Copy-33" transform="translate(-431.000000, -319.000000)">
            <g id="Small-Logo" transform="translate(431.000000, 319.000000)">
                <path d="M138.092,16.8940122 C138.297334,16.8940122 138.474666,16.9733447 138.624,17.1320122 L140.108,18.7420122 C139.286663,19.7593506 138.276339,20.5386762 137.077,21.0800122 C135.877661,21.6213482 134.438008,21.8920122 132.758,21.8920122 C131.255326,21.8920122 129.904339,21.6353481 128.705,21.1220122 C127.505661,20.6086763 126.481338,19.8946834 125.632,18.9800122 C124.782662,18.065341 124.131669,16.9733519 123.679,15.7040122 C123.226331,14.4346725 123,13.0486864 123,11.5460122 C123,10.0246713 123.251997,8.6316852 123.756,7.36701221 C124.260003,6.10233922 124.969329,5.01268345 125.884,4.09801221 C126.798671,3.18334097 127.892994,2.47168142 129.167,1.96301221 C130.441006,1.454343 131.847992,1.20001221 133.388,1.20001221 C134.890674,1.20001221 136.204328,1.44034314 137.329,1.92101221 C138.453672,2.40168128 139.417329,3.03867491 140.22,3.83201221 L138.96,5.58201221 C138.885333,5.69401277 138.789667,5.79201179 138.673,5.87601221 C138.556333,5.96001263 138.395334,6.00201221 138.19,6.00201221 C137.975332,6.00201221 137.756001,5.91801305 137.532,5.75001221 C137.307999,5.58201137 137.023335,5.40001319 136.678,5.20401221 C136.332665,5.00801123 135.896336,4.82601305 135.369,4.65801221 C134.841664,4.49001137 134.172004,4.40601221 133.36,4.40601221 C132.407995,4.40601221 131.533004,4.57167722 130.735,4.90301221 C129.936996,5.2343472 129.251003,5.70800913 128.677,6.32401221 C128.102997,6.94001529 127.655002,7.6890078 127.333,8.57101221 C127.010998,9.45301662 126.85,10.4446734 126.85,11.5460122 C126.85,12.6846846 127.010998,13.6973411 127.333,14.5840122 C127.655002,15.4706833 128.091331,16.2173425 128.642,16.8240122 C129.192669,17.4306819 129.84133,17.8950106 130.588,18.2170122 C131.33467,18.5390138 132.137329,18.7000122 132.996,18.7000122 C133.509336,18.7000122 133.973665,18.6720125 134.389,18.6160122 C134.804335,18.5600119 135.186998,18.4713461 135.537,18.3500122 C135.887002,18.2286783 136.218332,18.0723465 136.531,17.8810122 C136.843668,17.6896779 137.153998,17.4540136 137.462,17.1740122 C137.555334,17.0900118 137.653333,17.0223458 137.756,16.9710122 C137.858667,16.9196786 137.970666,16.8940122 138.092,16.8940122 L138.092,16.8940122 Z M165.713999,11.5460122 C165.713999,13.0300196 165.466668,14.4043392 164.971999,15.6690122 C164.47733,16.9336852 163.782004,18.0280076 162.885999,18.9520122 C161.989995,19.8760168 160.912006,20.5970096 159.651999,21.1150122 C158.391993,21.6330148 156.996674,21.8920122 155.465999,21.8920122 C153.935325,21.8920122 152.537672,21.6330148 151.272999,21.1150122 C150.008326,20.5970096 148.92567,19.8760168 148.024999,18.9520122 C147.124328,18.0280076 146.426668,16.9336852 145.931999,15.6690122 C145.43733,14.4043392 145.189999,13.0300196 145.189999,11.5460122 C145.189999,10.0620048 145.43733,8.6876852 145.931999,7.42301221 C146.426668,6.15833922 147.124328,5.06401683 148.024999,4.14001221 C148.92567,3.21600759 150.008326,2.4950148 151.272999,1.97701221 C152.537672,1.45900962 153.935325,1.20001221 155.465999,1.20001221 C156.996674,1.20001221 158.391993,1.46134293 159.651999,1.98401221 C160.912006,2.50668149 161.989995,3.22767428 162.885999,4.14701221 C163.782004,5.06635014 164.47733,6.15833922 164.971999,7.42301221 C165.466668,8.6876852 165.713999,10.0620048 165.713999,11.5460122 L165.713999,11.5460122 Z M161.849999,11.5460122 C161.849999,10.43534 161.703001,9.43901662 161.408999,8.55701221 C161.114998,7.6750078 160.692669,6.92601529 160.141999,6.31001221 C159.59133,5.69400913 158.92167,5.22268051 158.132999,4.89601221 C157.344329,4.56934391 156.455338,4.40601221 155.465999,4.40601221 C154.476661,4.40601221 153.585337,4.56934391 152.791999,4.89601221 C151.998662,5.22268051 151.324335,5.69400913 150.768999,6.31001221 C150.213663,6.92601529 149.786667,7.6750078 149.487999,8.55701221 C149.189331,9.43901662 149.039999,10.43534 149.039999,11.5460122 C149.039999,12.6566844 149.189331,13.6530078 149.487999,14.5350122 C149.786667,15.4170166 150.213663,16.1636758 150.768999,16.7750122 C151.324335,17.3863486 151.998662,17.8553439 152.791999,18.1820122 C153.585337,18.5086805 154.476661,18.6720122 155.465999,18.6720122 C156.455338,18.6720122 157.344329,18.5086805 158.132999,18.1820122 C158.92167,17.8553439 159.59133,17.3863486 160.141999,16.7750122 C160.692669,16.1636758 161.114998,15.4170166 161.408999,14.5350122 C161.703001,13.6530078 161.849999,12.6566844 161.849999,11.5460122 L161.849999,11.5460122 Z M170.277998,19.7640122 C170.277998,19.4746774 170.331665,19.1993468 170.438998,18.9380122 C170.546332,18.6766776 170.695664,18.4526798 170.886998,18.2660122 C171.078333,18.0793446 171.304664,17.9300128 171.565998,17.8180122 C171.827333,17.7060116 172.10733,17.6500122 172.405998,17.6500122 C172.695333,17.6500122 172.970664,17.7060116 173.231998,17.8180122 C173.493333,17.9300128 173.717331,18.0793446 173.903998,18.2660122 C174.090666,18.4526798 174.239998,18.6766776 174.351998,18.9380122 C174.463999,19.1993468 174.519998,19.4746774 174.519998,19.7640122 C174.519998,20.0626804 174.463999,20.3403443 174.351998,20.5970122 C174.239998,20.8536802 174.090666,21.0753446 173.903998,21.2620122 C173.717331,21.4486798 173.493333,21.5956783 173.231998,21.7030122 C172.970664,21.8103461 172.695333,21.8640122 172.405998,21.8640122 C172.10733,21.8640122 171.827333,21.8103461 171.565998,21.7030122 C171.304664,21.5956783 171.078333,21.4486798 170.886998,21.2620122 C170.695664,21.0753446 170.546332,20.8536802 170.438998,20.5970122 C170.331665,20.3403443 170.277998,20.0626804 170.277998,19.7640122 L170.277998,19.7640122 Z" id="CO." fill="#2B2C40"></path>
                <path d="M45.52,48.48 C45.786668,48.48 46.0133324,48.5733324 46.2,48.76 L47.8,50.48 C46.6266608,51.7333396 45.3466736,52.859995 43.96,53.86 C42.5733264,54.860005 41.0600082,55.7133298 39.42,56.42 C37.7799918,57.1266702 35.9800098,57.6733314 34.02,58.06 C32.0599902,58.4466686 29.9066784,58.64 27.56,58.64 C23.6399804,58.64 20.046683,57.9533402 16.78,56.58 C13.513317,55.2066598 10.713345,53.2600126 8.38,50.74 C6.046655,48.2199874 4.2266732,45.1733512 2.92,41.6 C1.6133268,38.0266488 0.96,34.0533552 0.96,29.68 C0.96,25.3866452 1.6333266,21.4666844 2.98,17.92 C4.3266734,14.3733156 6.2199878,11.3266794 8.66,8.78 C11.1000122,6.2333206 14.019983,4.260007 17.42,2.86 C20.820017,1.459993 24.5733128,0.76 28.68,0.76 C30.7333436,0.76 32.6133248,0.9133318 34.32,1.22 C36.0266752,1.5266682 37.6199926,1.9666638 39.1,2.54 C40.5800074,3.1133362 41.9733268,3.8266624 43.28,4.68 C44.5866732,5.5333376 45.8666604,6.5199944 47.12,7.64 L45.88,9.44 C45.6666656,9.7600016 45.3333356,9.92 44.88,9.92 C44.6399988,9.92 44.3333352,9.7800014 43.96,9.5 C43.5866648,9.2199986 43.1133362,8.8733354 42.54,8.46 C41.9666638,8.0466646 41.2733374,7.5933358 40.46,7.1 C39.6466626,6.6066642 38.6800056,6.1533354 37.56,5.74 C36.4399944,5.3266646 35.146674,4.9800014 33.68,4.7 C32.213326,4.4199986 30.546676,4.28 28.68,4.28 C25.2399828,4.28 22.0800144,4.8733274 19.2,6.06 C16.3199856,7.2466726 13.8400104,8.939989 11.76,11.14 C9.6799896,13.340011 8.0600058,16.006651 6.9,19.14 C5.7399942,22.273349 5.16,25.7866472 5.16,29.68 C5.16,33.68002 5.7333276,37.2533176 6.88,40.4 C8.0266724,43.5466824 9.6133232,46.2066558 11.64,48.38 C13.6666768,50.5533442 16.0599862,52.2199942 18.82,53.38 C21.5800138,54.5400058 24.5733172,55.12 27.8,55.12 C29.8266768,55.12 31.6333254,54.986668 33.22,54.72 C34.8066746,54.453332 36.26666,54.053336 37.6,53.52 C38.93334,52.986664 40.1733276,52.3333372 41.32,51.56 C42.4666724,50.7866628 43.5999944,49.8800052 44.72,48.84 C44.853334,48.7333328 44.9799994,48.646667 45.1,48.58 C45.2200006,48.513333 45.3599992,48.48 45.52,48.48 L45.52,48.48 Z" id="C" fill="#BF8A49"></path>
                <polygon id="Line" fill="#BF8A49" fill-rule="nonzero" points="172.509434 33 174.009434 33 174.009434 30 172.509434 30 124.5 30 123 30 123 33 124.5 33"></polygon>
                <mask id="mask-2" fill="white">
                    <use xlink:href="#path-1"></use>
                </mask>
                <use id="CD" fill="#BF8A49" xlink:href="#path-1"></use>
            </g>
        </g>
    </g>
</svg>

<svg xmlns="http://www.w3.org/2000/svg" width="175" height="59" class="logo-small" viewBox="0 0 175 59" xmlns:xlink="http://www.w3.org/1999/xlink">
  <defs>
    <path id="a" d="M111.24 29.68c0 4.3734-.6533 8.3066-1.96 11.8-1.3067 3.4934-3.1467 6.4667-5.52 8.92-2.3733 2.4533-5.2133 4.3333-8.52 5.64-3.3067 1.3067-6.9733 1.96-11 1.96H63.6V1.4h20.64c4.0267 0 7.6933.6533 11 1.96s6.1467 3.1867 8.52 5.64c2.3733 2.4533 4.2133 5.4266 5.52 8.92 1.3067 3.4934 1.96 7.4133 1.96 11.76zm-4.24 0c0-3.9467-.5467-7.4667-1.64-10.56s-2.6333-5.7067-4.62-7.84-4.38-3.76-7.18-4.88-5.9066-1.68-9.32-1.68H67.72v49.96h16.52c3.4134 0 6.52-.56 9.32-1.68 2.8-1.12 5.1933-2.7467 7.18-4.88 1.9867-2.1333 3.5267-4.7467 4.62-7.84 1.0933-3.0933 1.64-6.6266 1.64-10.6z"/>
  </defs>
  <g fill="none" fill-rule="evenodd">
    <path id="co" class="co" d="M138.092 16.894c.2053 0 .3827.0793.532.238l1.484 1.61c-.8213 1.0174-1.8317 1.7967-3.031 2.338-1.1993.5413-2.639.812-4.319.812-1.5027 0-2.8537-.2567-4.053-.77-1.1993-.5133-2.2237-1.2273-3.073-2.142-.8493-.9147-1.5003-2.0066-1.953-3.276-.4527-1.2693-.679-2.6553-.679-4.158 0-1.5213.252-2.9143.756-4.179.504-1.2647 1.2133-2.3543 2.128-3.269.9147-.9147 2.009-1.6263 3.283-2.135 1.274-.5087 2.681-.763 4.221-.763 1.5027 0 2.8163.2403 3.941.721 1.1247.4807 2.0883 1.1177 2.891 1.911l-1.26 1.75c-.0747.112-.1703.21-.287.294-.1167.084-.2777.126-.483.126-.2147 0-.434-.084-.658-.252-.224-.168-.5087-.35-.854-.546-.3453-.196-.7817-.378-1.309-.546-.5273-.168-1.197-.252-2.009-.252-.952 0-1.827.1657-2.625.497-.798.3313-1.484.805-2.058 1.421-.574.616-1.022 1.365-1.344 2.247-.322.882-.483 1.8737-.483 2.975 0 1.1387.161 2.1513.483 3.038.322.8867.7583 1.6333 1.309 2.24.5507.6067 1.1993 1.071 1.946 1.393.7467.322 1.5493.483 2.408.483.5133 0 .9777-.028 1.393-.084.4153-.056.798-.1447 1.148-.266.35-.1213.6813-.2777.994-.469.3127-.1913.623-.427.931-.707.0933-.084.1913-.1517.294-.203.1027-.0513.2147-.077.336-.077zm27.622-5.348c0 1.484-.2473 2.8583-.742 4.123-.4947 1.2647-1.19 2.359-2.086 3.283-.896.924-1.974 1.645-3.234 2.163-1.26.518-2.6553.777-4.186.777s-2.9283-.259-4.193-.777c-1.2647-.518-2.3473-1.239-3.248-2.163-.9007-.924-1.5983-2.0183-2.093-3.283-.4947-1.2647-.742-2.639-.742-4.123 0-1.484.2473-2.8583.742-4.123.4947-1.2647 1.1923-2.359 2.093-3.283.9007-.924 1.9833-1.645 3.248-2.163 1.2647-.518 2.6623-.777 4.193-.777 1.5307 0 2.926.2613 4.186.784 1.26.5227 2.338 1.2437 3.234 2.163.896.9194 1.5913 2.0113 2.086 3.276.4947 1.2647.742 2.639.742 4.123zm-3.864 0c0-1.1107-.147-2.107-.441-2.989-.294-.882-.7163-1.631-1.267-2.247-.5507-.616-1.2203-1.0873-2.009-1.414s-1.6777-.49-2.667-.49c-.9893 0-1.8807.1633-2.674.49-.7933.3267-1.4677.798-2.023 1.414-.5553.616-.9823 1.365-1.281 2.247-.2987.882-.448 1.8783-.448 2.989 0 1.1107.1493 2.107.448 2.989.2987.882.7257 1.6287 1.281 2.24.5553.6113 1.2297 1.0803 2.023 1.407.7933.3267 1.6847.49 2.674.49.9893 0 1.8783-.1633 2.667-.49.7887-.3267 1.4583-.7957 2.009-1.407.5507-.6113.973-1.358 1.267-2.24.294-.882.441-1.8783.441-2.989zm8.428 8.218c0-.2893.0537-.5647.161-.826s.2567-.4853.448-.672c.1913-.1867.4177-.336.679-.448.2613-.112.5413-.168.84-.168.2893 0 .5647.056.826.168.2613.112.4853.2613.672.448.1867.1867.336.4107.448.672.112.2613.168.5367.168.826 0 .2987-.056.5763-.168.833-.112.2567-.2613.4783-.448.665-.1867.1867-.4107.3337-.672.441-.2613.1073-.5367.161-.826.161-.2987 0-.5787-.0537-.84-.161s-.4877-.2543-.679-.441c-.1913-.1867-.3407-.4083-.448-.665-.1073-.2567-.161-.5343-.161-.833z"/>
    <path fill="#BF8A49" d="M45.52 48.48c.2667 0 .4933.0933.68.28l1.6 1.72c-1.1733 1.2533-2.4533 2.38-3.84 3.38-1.3867 1-2.9 1.8533-4.54 2.56-1.64.7067-3.44 1.2533-5.4 1.64-1.96.3867-4.1133.58-6.46.58-3.92 0-7.5133-.6867-10.78-2.06-3.2667-1.3733-6.0667-3.32-8.4-5.84-2.3333-2.52-4.1533-5.5666-5.46-9.14C1.6133 38.0266.96 34.0534.96 29.68c0-4.2934.6733-8.2133 2.02-11.76 1.3467-3.5467 3.24-6.5933 5.68-9.14 2.44-2.5467 5.36-4.52 8.76-5.92 3.4-1.4 7.1533-2.1 11.26-2.1 2.0533 0 3.9333.1533 5.64.46 1.7067.3067 3.3.7467 4.78 1.32 1.48.5733 2.8733 1.2867 4.18 2.14 1.3067.8533 2.5867 1.84 3.84 2.96l-1.24 1.8c-.2133.32-.5467.48-1 .48-.24 0-.5467-.14-.92-.42-.3733-.28-.8467-.6267-1.42-1.04-.5733-.4133-1.2667-.8667-2.08-1.36-.8133-.4933-1.78-.9467-2.9-1.36-1.12-.4133-2.4133-.76-3.88-1.04s-3.1333-.42-5-.42c-3.44 0-6.6.5933-9.48 1.78-2.88 1.1867-5.36 2.88-7.44 5.08s-3.7 4.8667-4.86 8c-1.16 3.1333-1.74 6.6466-1.74 10.54 0 4 .5733 7.5733 1.72 10.72 1.1467 3.1467 2.7333 5.8067 4.76 7.98 2.0267 2.1733 4.42 3.84 7.18 5 2.76 1.16 5.7533 1.74 8.98 1.74 2.0267 0 3.8333-.1333 5.42-.4 1.5867-.2667 3.0467-.6667 4.38-1.2s2.5733-1.1867 3.72-1.96c1.1467-.7733 2.28-1.68 3.4-2.72.1333-.1067.26-.1933.38-.26.12-.0667.26-.1.42-.1z"/>
    <path fill="#BF8A49" fill-rule="nonzero" d="M172.5094 33h1.5v-3H123v3h1.5"/>
    <use fill="#BF8A49" xlink:href="#a"/>
  </g>
</svg>
